X:824
T:The Young Widow
M:6/8
L:1/8
S:Colin Hume's website,  colinhume.com  - chords can also be printed below the stave.
Q:3/8=116
K:G
P:A
|: "G"B2B "/"BAB | "D7"cdc "G"BAG | "G"BAG "/"BAG | "Em"BAG "D7"d3 |\
"G"B2B "/"BAB | "D7"cdc "G"BAG | "Em"Bcd "C"efg | "D7"BcA "G"G3 :|
P:B
| "D"AFD "/"AFD | "G/D"dcB "D"AFD | "D"AFD "/"AFD | "G/D"dcB "D"A3 |\
"D"AFD "/"AFD | "G/D"dcB "D"AFD | "D"AFD "/"AFD | "G/D"dcB "D"A3 |
P:C
K:D
| "D"f2f "/"fef | "A7"gag "D"fed | "D"fed "D/C#"fed | "Bm"fed "A7"a3 |\
"D"f2f "/"fef | "A7"gag "D"fed | "Bm"def "G"efg | "A7"a2A "D"d3 |]

